packages/core/src/svgs/tokens/branded/OS.svg

<svg width="24" height="24" viewBox="0 0 24 24" fill="none" xmlns="http://www.w3.org/2000/svg">
<path fill-rule="evenodd" clip-rule="evenodd" d="M12 21.4117C14.4961 21.4117 16.8901 20.4202 18.6551 18.6551C20.4202 16.89 21.4117 14.4961 21.4117 12C21.4117 9.50377 20.4202 7.10991 18.6551 5.34487C16.8901 3.57982 14.4961 2.58823 12 2.58823C9.5039 2.58823 7.10991 3.57982 5.34487 5.34487C3.57983 7.10991 2.58823 9.50377 2.58823 12C2.58823 14.4961 3.57983 16.89 5.34487 18.6551C7.10991 20.4202 9.5039 21.4117 12 21.4117ZM12 22C14.6522 22 17.1957 20.9464 19.0711 19.071C20.9464 17.1957 22 14.6522 22 12C22 9.34785 20.9464 6.80429 19.0711 4.92892C17.1957 3.05357 14.6522 2 12 2C9.34784 2 6.80429 3.05357 4.92892 4.92892C3.05357 6.80429 2 9.34785 2 12C2 14.6522 3.05357 17.1957 4.92892 19.071C6.80429 20.9464 9.34784 22 12 22ZM6.70588 9.35293V8.7647L12 5.5294L17.2941 8.7647V9.35293L12 12.5882L6.70588 9.35293ZM7.88234 9.05881L12 6.70588L16.1177 9.05881L12 11.4118L7.88234 9.05881ZM10.2353 8.47058L11.1176 7.88234L14.0588 9.64707L13.1764 10.2353L10.2353 8.47058ZM6.70588 11.4118V12.2942L12 15.2353L17.2941 12.2942V11.4118L12 14.353L6.70588 11.4118ZM6.70588 15.2353V14.353L12 17.2941L17.2941 14.353V15.2353L12 18.1765L6.70588 15.2353Z" fill="#7853FE"/>
</svg>

<svg xmlns="http://www.w3.org/2000/svg" width="24" height="24" fill="none" viewBox="0 0 24 24">
    <path fill="#7853FE" fill-rule="evenodd" d="M12 21.412a9.411 9.411 0 1 0 0-18.823 9.411 9.411 0 0 0 0 18.823M12 22a10 10 0 1 0 0-20 10 10 0 0 0 0 20M6.706 9.353v-.588L12 5.529l5.294 3.236v.588L12 12.588zm1.176-.294L12 6.706l4.118 2.353L12 11.412zm2.353-.588.883-.589 2.94 1.765-.882.588zm-3.53 2.94v.883L12 15.235l5.294-2.94v-.883L12 14.353zm0 3.824v-.882L12 17.294l5.294-2.941v.882L12 18.177z" clip-rule="evenodd"/>
</svg>
